X:1
T:Salve Regina
T:Amadio Freddi
T:Source : Ghirlanda Sacra---Venetia---Ang.Gardano (B.Magni)---1625. Editor : André Vierendeels (20/12/16).
T:Notes : Original clefs : C1, F4 Figures in BC are notated in original print Original note values have been halved in 3-beat measures Music collected by Leonardo Simonetti
T:Salve Regina
T:©
T:©
T:©
T:©
T:©
T:©
C:Amadio Freddi
Z:©
%%score 1 2
L:1/8
Q:1/4=120
M:4/4
K:F
V:1 treble nm="Soprano" snm="S"
V:2 bass nm="MusicXML Part"
V:1
 z4 G4- | G2 FE F4- | F2 EE E4 | D8 | z2 GE AF B2- | B2 AG cBTAA | G4 z2 GD | EE AA/E/ ^FFGG | %8
w: Sal-||* ve Re- gi-|na,|sal- ve, sal- ve Ma-|* ter mi- se- ri- cor- di-|ae, sal- ve|vi- ta, sal- ve dul- ce- do et spes|
 G2 _E/D/F/E/ D4 | C4 z cAd | =BGcB AFDG | ECFE D2 G2- | GG F2 E4 | D4 z2 D2 | E4 z2 ^FF | %15
w: no- stra _ _ _ sal-|ve, ad te cla-|ma- mus ex- u- les, ad te cla-|ma- mus ex- u- les Fi-|* li- i E-|vae ad|te su- spi-|
 G2 G2 z2 ^G2 | A2 A2 z2 A2 | A6 G2 | A2 cB BAAG | GFFE E4 | ^F2 G4 F2 | G4 z2 DG | _E2 C2 z2 GA | %23
w: ra- mus ge-|men- tes et|flen- *|tes in hac la- cri- ma- rum,|in hac la- cri- ma-|rum val- *|le, e- ia|er- go ad- vo-|
 B3 A ^F2 G2 | AA^FF GG DD/D/ | D2 D2 _E3 E | DDGE A2 G/F/E/D/ | E4 D4 | z2 D2 E2 E2 | %29
w: ca- * * ta|no- stra il- los tu- os mi- se- ri-|cor- des o- cu-|los ad nos, ad nos con- * * *|ver- te|et Je- sum|
 z EEE E^F FF/F/ | GG^GG A2 AA | =BBBB ^c4 | d4 z2 A2 | B2 B2 z2 D2 | E2 E2 z2 E2 | ^F2 FF ^G2 GG | %36
w: be- ne di- ctum fru- ctium ven- tris|tu- i, no- bis post hoc ex-|i- li- um os- ten-|de, o|Cle- mens, o|Pi- a, o|Dul- cis, o Dul- cis, o|
 A2 A2 F4- | F2 EE E4 | D8 |[M:6/4] E4 D4 E4 | F4 E4 F4 | G4 F4 G4 | A4 G4 A4 | B4 A4 B4 | %44
w: Dul- cis Vir-|* go Ma- ri-|a|Sal- ve, o|Ma- ter, o|Vir- go, vi-|ta dul- ce-|do, o spes|
 c6 ^F2 G4 | A12 | D4 C4 D4 | E4 E4 z4 | E4 D4 E4 | ^F4 F4 z4 | ^F4 E4 F4 | G4 ^F4 G4 | A4 G4 A4 | %53
w: no- stra, sal-|ve,|sal- ve, o|Cle- mens|sal- ve, o|Pi- a,|sal- ve, o|Dul- cis, o|Dul- cis, o|
[M:2/2] B4 B2 B2- | B2 AA A4 | !fermata!G8 | z2 D/4E/4F/4G/4A/4B/4c/ ^F2 G/A/B/A/ | %57
w: Dul- cis Vir-|* go Ma- ri-|a.|Vir- * * * * * * go Ma- * * *|
 c/B/A/G/ ^F/E/F/D/ d/c/B/A/ c/B/A/G/ | ^F2 G4 F2 | G8 |] %60
w: |* * ri-|a.|
V:2
"^BC" G,,8 |"^4 3" D,8 |"^6""^#" E,2 F,2 G,2 A,2 | D,6 =B,,G,, | C,2 E,2 F,2 G,2 | %5
"^#" _E,4 C,2 D,2 |"^-natural" G,,3 C, =B,,4 | C,2 ^C,2 D,2 =B,,2 |"^#""^4 3" _E,4 G,,4 | %9
 C,2 C,2 E,2 F,2 |"^-natural""^-natural" G,2 E,2 F,2 G,2 |"^6" C,2 A,,2 B,,2 C,2 | %12
"^4 3" D,2 G,,2 A,,4 |"^#" D,2 ^F,2 G,2 =B,,2 | C,2 ^C,2 D,4 |"^-natural""^#" G,3 F, E,3 D, | %16
"^#" ^C,4 D,4 |"^9 8" G,,8 |"^-natural""^6""^6" D,2 A,,2 B,,2 C,2 |"^5""^#" E,2 F,2 G,,2 A,,2 | %20
"^#""^5""^#" D,2 _E,2 C,2 D,2 |"^-natural" G,,3 C, =B,,4 |"^b""^b" C,4 C,4 |"^#" G,,4 D,2 _E,2 | %24
"^#" D,4 =B,,4 |"^b" =B,,4 C,4 |"^-natural""^#""^6" G,,3 C, A,,2 B,,2 |"^5""^#""^#" G,,2 A,,2 D,4 | %28
 =B,,4 C,4 |"^#" ^C,4 D,4 |"^#" E,2 E,2 ^F,4 | ^G,4 E,4 | D,4 ^F,4 | G,2 G,,2 =B,,4 | C,4 ^C,4 | %35
 D,4 E,4 | ^C,4 D,4 |"^4 3" G,,4 A,,4 |"^#" D,8 |[M:6/4] ^C,8 C,4 |"^6" D,8 D,4 | E,8 E,4 | %42
"^6""^6" F,8 E,4 | G,8 G,4 |"^b""^#""^6" C,6 D,2 _E,4 |"^#" D,12 | =B,,8 B,,4 | C,8 C,4 | %48
 ^C,8 C,4 |"^#""^#" D,8 D,4 |"^#""^#" D,8 D,4 | E,8 E,4 | ^F,8 F,4 |[M:2/2] G,2 F,2 _E,2 D,2 | %54
"^7 6""^4 3" C,4 D,4 | !fermata!G,,8 |"^#" G,2 F,E, D,2 _E,2 |"^#""^6" C,2 D,2 B,,2 C,2 | %58
"^#""^#" D,2 _E,2 D,4 | G,,8 |] %60

